material/.icons/material/sprinkler-variant.svg

<svg xmlns="http://www.w3.org/2000/svg" viewBox="0 0 24 24"><path d="M10 10h4v12h-4V10M7 9h2V7H7v2M4 8h2V6H4v2m0 3h2V9H4v2m-3 2h2v-2H1v2m0-6h2V5H1v2m0 3h2V8H1v2m17 1h2V9h-2v2m3-1h2V8h-2v2m0-5v2h2V5h-2m0 8h2v-2h-2v2m-6-4h2V7h-2v2m3-1h2V6h-2v2m-8-1h.33L11 9h2l.67-2H14V6h-4v1z"/></svg>

<?xml version="1.0" encoding="UTF-8"?><!DOCTYPE svg PUBLIC "-//W3C//DTD SVG 1.1//EN" "http://www.w3.org/Graphics/SVG/1.1/DTD/svg11.dtd"><svg xmlns="http://www.w3.org/2000/svg" xmlns:xlink="http://www.w3.org/1999/xlink" version="1.1" id="mdi-sprinkler-variant" width="24" height="24" viewBox="0 0 24 24"><path d="M10 10H14V22H10V10M7 9H9V7H7V9M4 8H6V6H4V8M4 11H6V9H4V11M1 13H3V11H1V13M1 7H3V5H1V7M1 10H3V8H1V10M18 11H20V9H18V11M21 10H23V8H21V10M21 5V7H23V5H21M21 13H23V11H21V13M15 9H17V7H15V9M18 8H20V6H18V8M10 7H10.33L11 9H13L13.67 7H14V6H10V7Z" /></svg>
